resources/svg/clipboard-plus.svg

<svg width="15" height="15" viewBox="0 0 15 15" fill="none" xmlns="http://www.w3.org/2000/svg">
<path fill-rule="evenodd" clip-rule="evenodd" d="M4 0H11V1H14V13.5C14 14.3284 13.3284 15 12.5 15H2.5C1.67157 15 1 14.3284 1 13.5V1H4V0ZM5 1H10V2.5C10 2.77614 9.77614 3 9.5 3H5.5C5.22386 3 5 2.77614 5 2.5V1ZM7 11V9H5V8H7V6H8V8H10V9H8V11H7Z" fill="black"/>
</svg>

<svg viewBox="0 0 15 15" fill="none" xmlns="http://www.w3.org/2000/svg" fill="currentColor"><path fill-rule="evenodd" clip-rule="evenodd" d="M4 0h7v1h3v12.5a1.5 1.5 0 01-1.5 1.5h-10A1.5 1.5 0 011 13.5V1h3V0zm1 1h5v1.5a.5.5 0 01-.5.5h-4a.5.5 0 01-.5-.5V1zm2 10V9H5V8h2V6h1v2h2v1H8v2H7z" fill="currentColor"/></svg>
